icons/oreilly.svg

<?xml version="1.0" encoding="UTF-8" standalone="no"?>
<svg width="512px" height="93px" viewBox="0 0 512 93" version="1.1" xmlns="http://www.w3.org/2000/svg" xmlns:xlink="http://www.w3.org/1999/xlink" preserveAspectRatio="xMidYMid">
	<g>
		<path d="M271.9268,16.3417 L271.9268,1.4717 L209.8798,1.4717 L209.8798,90.7267 L271.9268,90.7267 L271.9268,75.8517 L224.7568,75.8517 L224.7568,53.5407 L269.6548,53.5407 L269.6548,38.6647 L224.7568,38.6647 L224.7568,16.3417 L271.9268,16.3417 Z M317.9653,90.727 L317.9653,1.478 L332.8473,1.478 L332.8473,75.851 L375.7563,75.851 L375.7563,90.727 L317.9653,90.727 Z M387.8812,90.727 L387.8812,1.478 L402.7632,1.478 L402.7632,75.851 L445.6852,75.851 L445.6852,90.727 L387.8812,90.727 Z M287.539,1.478 L302.415,1.478 L302.415,90.727 L287.539,90.727 L287.539,1.478 Z M0,46.509 C0,20.83 20.812,0.03 46.491,0.024 C72.17,0.03 92.97,20.83 92.976,46.509 C92.97,72.181 72.17,92.994 46.491,93 C20.812,92.994 0,72.181 0,46.509 Z M24.13,24.148 C18.408,29.908 14.882,37.758 14.87,46.509 C14.882,55.266 18.408,63.11 24.13,68.857 C29.878,74.592 37.734,78.124 46.491,78.124 C55.248,78.124 63.092,74.592 68.834,68.857 C74.575,63.11 78.1,55.266 78.1,46.509 C78.1,37.758 74.575,29.908 68.834,24.148 C63.092,18.432 55.248,14.906 46.491,14.9 C37.734,14.906 29.878,18.432 24.13,24.148 Z M176.3889,52.4327 C187.1229,49.2097 194.9539,39.2887 194.9539,27.5027 C194.9539,13.1307 183.3009,1.4787 168.9169,1.4787 L124.0809,1.4787 L124.0809,90.7267 L138.9509,90.7267 L138.9509,53.5477 L159.6749,53.5477 L182.1109,90.7267 L199.4679,90.7267 L176.3889,52.4327 Z M138.9509,38.6647 L138.9509,16.3417 L168.9169,16.3417 C175.0799,16.3477 180.0719,21.3467 180.0849,27.5027 C180.0719,33.6597 175.0799,38.6517 168.9169,38.6647 L138.9509,38.6647 Z M512,1.4782 L493.92,1.4782 L471.023,34.6162 L448.128,1.4782 L430.047,1.4782 L463.564,50.0092 L463.564,90.7272 L478.446,90.7272 L478.446,50.0402 L512,1.4782 Z" fill="#221F20"></path>
		<path d="M113.5305,10.9718 C113.5305,17.0218 108.6325,21.9258 102.5885,21.9258 C96.5325,21.9258 91.6355,17.0218 91.6355,10.9718 C91.6355,4.9278 96.5325,0.0238 102.5885,0.0238 C108.6325,0.0238 113.5305,4.9278 113.5305,10.9718" fill="#D31242"></path>
	</g>
</svg>

<svg xmlns="http://www.w3.org/2000/svg" viewBox="0 0 512 92.976">
  <path fill="#221f20" d="M271.927 16.318V1.448H209.88v89.255h62.047V75.828h-47.17V53.517h44.898V38.64h-44.898V16.318zm46.038 74.385V1.454h14.882v74.373h42.91v14.876zm69.916 0 57.791-89.249h14.882v74.373h42.922v14.876zM287.54 1.454h14.876v89.25h-14.876zM0 46.485C0 20.806 20.812.006 46.491 0 72.17.006 92.97 20.806 92.976 46.485 92.97 72.157 72.17 92.97 46.491 92.976 20.812 92.97 0 72.157 0 46.486zm24.13-22.36c-5.722 5.76-9.248 13.61-9.26 22.36.012 8.757 3.538 16.601 9.26 22.348 5.748 5.735 13.604 9.267 22.361 9.267 8.757 0 16.601-3.532 22.343-9.267 5.741-5.747 9.266-13.59 9.266-22.348 0-8.75-3.525-16.6-9.266-22.36-5.742-5.717-13.586-9.243-22.343-9.249-8.757.006-16.613 3.532-22.361 9.248zm152.259 28.284c10.734-3.223 18.565-13.144 18.565-24.93 0-14.372-11.653-26.024-26.037-26.024H124.08v89.248h14.87v-37.18h20.724l22.436 37.18h17.357zM138.95 38.64V16.318h29.966c6.163.006 11.155 5.005 11.168 11.16-.013 6.158-5.005 11.15-11.168 11.163zM512 1.454h-18.08l-22.897 33.138-22.895-33.138h-18.081l33.517 48.531v40.718h14.882V50.016z"/>
  <path fill="#d31242" d="M113.53 10.948c0 6.05-4.897 10.954-10.941 10.954-6.056 0-10.953-4.904-10.953-10.954C91.636 4.904 96.533 0 102.589 0c6.044 0 10.942 4.904 10.942 10.948"/>
</svg>
